!!!COM: Bach, Johann Sebastian
!!!OPR: Inventio
!!!OTL: Inventio 1
!!!XEN: Two-part Inventions [for keyboard]
!!!ONM: No. 1
!!!ONB: In C major.
!!!SCT: BWV 772
!!!YEC: Copyright 1994, David Huron
!!!YEM: Rights to all derivative electronic formats reserved.
!! Performance duration: 1:29; performance tempo: 59.3 quarter-notes per minute.
!! (Andras Schiff, piano, "Two-Part Inventions BWV 772a-786; Three-part
!! Inventions BWV 787-801" Decca 411 974-2)
**kern	**kern
*staff2	*staff1
*clefF4	*clefG2
*k[]	*k[]
*C:	*C:
*M4/4	*M4/4
*MM59.3	*MM59.3
=1-	=1-
2r	16r
.	16c
.	16d
.	16e
.	16f
.	16d
.	16e
.	16c
16r	8g
16C	.
16D	8cc
16E	.
16F	8bM
16D	.
16E	8cc
16C	.
=2	=2
8G	16dd
.	16g
8GG	16a
.	16b
4r	16cc
.	16a
.	16b
.	16g
16r	8dd
16G	.
16A	8gg
16B	.
16c	8ffM
16A	.
16B	8gg
16G	.
=3	=3
8c	16ee
.	16aa
8B	16gg
.	16ff
8c	16ee
.	16gg
8d	16ff
.	16aa
8e	16gg
.	16ff
8G	16ee
.	16dd
8A	16cc
.	16ee
8B	16dd
.	16ff
=4	=4
8c	16ee
.	16dd
8E	16cc
.	16b
8F#	16a
.	16cc
8G	16b
.	16dd
8A	16cc
.	16b
8B	16a
.	16g
[4c	16f#
.	16a
.	16g
.	16b
=5	=5
16c]	8a
16D	.
16E	8d
16F#	.
16G	8.ccW
16E	.
16F#	.
16D	16dd
8G	16b
.	16a
8BB	16g
.	16f#
8C	16e
.	16g
8D	16f#
.	16a
=6	=6
8E	16g
.	16b
8F#	16a
.	16cc
8G	16b
.	16dd
8E	16cc
.	16ee
8.BB	16dd
.	32b
.	32cc
.	16dd
16C	16gg
8D	8bM
8DD	16a
.	16g
=7	=7
16r	8g
16GG	.
16AA	8r
16BB	.
16C	4r
16AA	.
16BB	.
16GG	.
8D	16r
.	16g
8G	16a
.	16b
8F#	16cc
.	16a
8G	16b
.	16g
=8	=8
16A	8f#M
16D	.
16E	8r
16F#	.
16G	4r
16E	.
16F#	.
16D	.
8A	16r
.	16a
8d	16b
.	16cc
8c	16dd
.	16b
8d	16cc
.	16a
=9	=9
16G	8b
16g	.
16f	8r
16e	.
16d	4r
16f	.
16e	.
16g	.
8f	16r
.	16dd
8e	16cc
.	16b
8f	16a
.	16cc
8d	16b
.	16dd
=10	=10
16e	8cc
16a	.
16g	8r
16f	.
16e	4r
16g	.
16f	.
16a	.
8g	16r
.	16ee
8f	16dd
.	16cc
8g	16b
.	16dd
8e	16cc#
.	16ee
=11	=11
16f	8dd
16b-	.
16a	8cc#
16g	.
16f	8dd
16a	.
16g	8ee
16b-	.
16a	8ff
16g	.
16f	8a
16e	.
16d	8bn
16f	.
16e	8cc#
16g	.
=12	=12
16f	8dd
16e	.
16d	8f#
16c	.
16B	8g#
16d	.
16c	8a
16e	.
16d	8b
16c	.
16B	8cc
16A	.
16G#	[4dd
16B	.
16A	.
16c	.
=13	=13
8B	16dd]
.	16e
8E	16f#
.	16g#
8.dW	16a
.	16f#
.	16g#
16e	16e
16c	16ee
16B	16dd
16A	16cc
16Gn	16ee
16F#	16dd
16A	16cc
16G#	16b
16B	16dd
=14	=14
16A	16cc
16c	16aa
16B	16gg#
16d	16bb
16c	16aa
16e	16ee
16d	16ff
16f	16dd
8e	16g#
.	16ff
8A	16ee
.	16dd
8e	8cc
8E	16b
.	16a
=15	=15
8A	16a
.	16aa
8AA	16gg
.	16ff
4r	16ee
.	16gg
.	16ff
.	16aa
16r	[2gg
16e	.
16d	.
16c	.
16B	.
16d	.
16c#	.
16e	.
=16	=16
[2d	16gg]
.	16ee
.	16ff
.	16gg
.	16aa
.	16ff
.	16gg
.	16ee
16d]	[2ff
16A	.
16B	.
16c	.
16d	.
16B	.
16c	.
16A	.
=17	=17
[2B	16ff]
.	16gg
.	16ff
.	16ee
.	16dd
.	16ff
.	16ee
.	16gg
16B]	[2ff
16d	.
16c	.
16B	.
16A	.
16c	.
16B	.
16d	.
=18	=18
[2c	16ff]
.	16dd
.	16ee
.	16ff
.	16gg
.	16ee
.	16ff
.	16dd
16c]	[2ee
16G	.
16A	.
16B-	.
16c	.
16A	.
16B-	.
16G	.
=19	=19
8A	16ee]
.	16cc
8B-	16dd
.	16ee
8A	16ff
.	16dd
8G	16ee
.	16cc
8F	16dd
.	16ee
8d	16ff
.	16gg
8c	16aa
.	16ff
8B-	16gg
.	16ee
=20	=20
8A	16ff
.	16gg
8f	16aa
.	16bb
8e	16ccc
.	16aa
8d	16bb
.	16gg
16e	8ccc
16D	.
16E	8gg
16F	.
16G	8ee
16E	.
16F	16dd
16D	16cc
=21	=21
8E	16cc
.	16b-
8C	16a
.	16g
8D	16f
.	16a
8E	16g
.	16b-
16F	16a
16D	16bn
16E	16cc
16F	16e
8G	16d
.	16cc
8GG	16f
.	16b
=22	=22
1CC; 1C;	1e; 1g; 1cc;
==|!	==|!
*-	*-
!!!CDT: 1685/3//-1750/7/28
!!!OCY: Deutschland
!!!AGN: polyphony
!!!AST: baroque
!!!AMT: simple quadruple
!!!SCA: Bach-Werke-Verzeichnis
!!!YOR: Bach Gesellschaft
!!!AIN: cemb; clavi
!!!EEV: 1.0
!!!RDT: 1986 November
!!!YER: 1995 May 22
!!!YEN: Canada
!!!EFL: 1/15
!!!EED: David Huron
